images/3235153.svg

<?xml version="1.0" encoding="UTF-8"?>
<svg xmlns="http://www.w3.org/2000/svg" xmlns:xlink="http://www.w3.org/1999/xlink" width="300pt" height="300pt" viewBox="0 0 300 300" version="1.1">
<defs>
<g>
<symbol overflow="visible" id="glyph0-0">
<path style="stroke:none;" d="M 0.453125 1.59375 L 0.453125 -6.34375 L 4.953125 -6.34375 L 4.953125 1.59375 Z M 0.953125 1.09375 L 4.453125 1.09375 L 4.453125 -5.84375 L 0.953125 -5.84375 Z M 0.953125 1.09375 "/>
</symbol>
<symbol overflow="visible" id="glyph0-1">
<path style="stroke:none;" d="M 0.890625 -6.5625 L 2.078125 -6.5625 L 4.984375 -1.078125 L 4.984375 -6.5625 L 5.84375 -6.5625 L 5.84375 0 L 4.65625 0 L 1.75 -5.484375 L 1.75 0 L 0.890625 0 Z M 0.890625 -6.5625 "/>
</symbol>
<symbol overflow="visible" id="glyph0-2">
<path style="stroke:none;" d="M 0.890625 -6.5625 L 1.765625 -6.5625 L 1.765625 -3.875 L 5 -3.875 L 5 -6.5625 L 5.890625 -6.5625 L 5.890625 0 L 5 0 L 5 -3.125 L 1.765625 -3.125 L 1.765625 0 L 0.890625 0 Z M 0.890625 -6.5625 "/>
</symbol>
<symbol overflow="visible" id="glyph0-3">
<path style="stroke:none;" d="M 3.546875 -5.953125 C 2.898438 -5.953125 2.382812 -5.710938 2 -5.234375 C 1.625 -4.753906 1.4375 -4.101562 1.4375 -3.28125 C 1.4375 -2.445312 1.625 -1.789062 2 -1.3125 C 2.382812 -0.832031 2.898438 -0.59375 3.546875 -0.59375 C 4.191406 -0.59375 4.703125 -0.832031 5.078125 -1.3125 C 5.453125 -1.789062 5.640625 -2.445312 5.640625 -3.28125 C 5.640625 -4.101562 5.453125 -4.753906 5.078125 -5.234375 C 4.703125 -5.710938 4.191406 -5.953125 3.546875 -5.953125 Z M 3.546875 -6.6875 C 4.460938 -6.6875 5.195312 -6.375 5.75 -5.75 C 6.300781 -5.132812 6.578125 -4.3125 6.578125 -3.28125 C 6.578125 -2.238281 6.300781 -1.410156 5.75 -0.796875 C 5.195312 -0.179688 4.460938 0.125 3.546875 0.125 C 2.617188 0.125 1.878906 -0.179688 1.328125 -0.796875 C 0.773438 -1.410156 0.5 -2.238281 0.5 -3.28125 C 0.5 -4.3125 0.773438 -5.132812 1.328125 -5.75 C 1.878906 -6.375 2.617188 -6.6875 3.546875 -6.6875 Z M 3.546875 -6.6875 "/>
</symbol>
</g>
</defs>
<g id="surface47365">
<rect x="0" y="0" width="300" height="300" style="fill:rgb(100%,100%,100%);fill-opacity:1;stroke:none;"/>
<path style="fill:none;stroke-width:1.2;stroke-linecap:butt;stroke-linejoin:miter;stroke:rgb(0%,0%,0%);stroke-opacity:1;stroke-miterlimit:10;" d="M 35.25 100.460938 L 60.40625 98.667969 "/>
<path style="fill:none;stroke-width:1.2;stroke-linecap:butt;stroke-linejoin:miter;stroke:rgb(0%,0%,0%);stroke-opacity:1;stroke-miterlimit:10;" d="M 60.40625 98.667969 L 67.46875 109.113281 "/>
<path style="fill:none;stroke-width:1.2;stroke-linecap:butt;stroke-linejoin:miter;stroke:rgb(0%,0%,100%);stroke-opacity:1;stroke-miterlimit:10;" d="M 67.46875 109.113281 L 74.535156 119.558594 "/>
<path style="fill:none;stroke-width:1.2;stroke-linecap:butt;stroke-linejoin:miter;stroke:rgb(0%,0%,100%);stroke-opacity:1;stroke-miterlimit:10;" d="M 74.535156 119.558594 L 87.109375 118.664062 "/>
<path style="fill:none;stroke-width:1.2;stroke-linecap:butt;stroke-linejoin:miter;stroke:rgb(0%,0%,0%);stroke-opacity:1;stroke-miterlimit:10;" d="M 87.109375 118.664062 L 99.6875 117.769531 "/>
<path style=" stroke:none;fill-rule:nonzero;fill:rgb(100%,100%,100%);fill-opacity:1;" d="M 67.535156 114.058594 L 81.535156 114.058594 L 81.535156 125.058594 L 67.535156 125.058594 Z M 67.535156 114.058594 "/>
<g style="fill:rgb(0%,0%,100%);fill-opacity:1;">
  <use xlink:href="#glyph0-1" x="67.535156" y="122.72168"/>
  <use xlink:href="#glyph0-2" x="74.512695" y="122.72168"/>
</g>
<path style="fill:none;stroke-width:1.2;stroke-linecap:butt;stroke-linejoin:miter;stroke:rgb(0%,0%,0%);stroke-opacity:1;stroke-miterlimit:10;" d="M 99.6875 117.769531 L 105.203125 106.429688 "/>
<path style="fill:none;stroke-width:1.2;stroke-linecap:butt;stroke-linejoin:miter;stroke:rgb(0%,0%,100%);stroke-opacity:1;stroke-miterlimit:10;" d="M 105.203125 106.429688 L 110.714844 95.089844 "/>
<path style="fill:none;stroke-width:1.2;stroke-linecap:butt;stroke-linejoin:miter;stroke:rgb(0%,0%,0%);stroke-opacity:1;stroke-miterlimit:10;" d="M 106.128906 118.097656 L 110.539062 109.023438 "/>
<path style="fill:none;stroke-width:1.2;stroke-linecap:butt;stroke-linejoin:miter;stroke:rgb(0%,0%,100%);stroke-opacity:1;stroke-miterlimit:10;" d="M 110.539062 109.023438 L 114.949219 99.953125 "/>
<path style="fill:none;stroke-width:1.2;stroke-linecap:butt;stroke-linejoin:miter;stroke:rgb(0%,0%,100%);stroke-opacity:1;stroke-miterlimit:10;" d="M 113.816406 138.660156 L 106.753906 128.214844 "/>
<path style="fill:none;stroke-width:1.2;stroke-linecap:butt;stroke-linejoin:miter;stroke:rgb(0%,0%,0%);stroke-opacity:1;stroke-miterlimit:10;" d="M 106.753906 128.214844 L 99.6875 117.769531 "/>
<path style="fill:none;stroke-width:1.2;stroke-linecap:butt;stroke-linejoin:miter;stroke:rgb(0%,0%,100%);stroke-opacity:1;stroke-miterlimit:10;" d="M 110.714844 95.089844 L 123.292969 94.195312 "/>
<path style="fill:none;stroke-width:1.2;stroke-linecap:butt;stroke-linejoin:miter;stroke:rgb(0%,0%,0%);stroke-opacity:1;stroke-miterlimit:10;" d="M 123.292969 94.195312 L 135.871094 93.300781 "/>
<path style=" stroke:none;fill-rule:nonzero;fill:rgb(100%,100%,100%);fill-opacity:1;" d="M 107.714844 89.589844 L 114.714844 89.589844 L 114.714844 100.589844 L 107.714844 100.589844 Z M 107.714844 89.589844 "/>
<g style="fill:rgb(0%,0%,100%);fill-opacity:1;">
  <use xlink:href="#glyph0-1" x="107.714844" y="98.25293"/>
</g>
<path style="fill:none;stroke-width:1.2;stroke-linecap:butt;stroke-linejoin:miter;stroke:rgb(0%,0%,0%);stroke-opacity:1;stroke-miterlimit:10;" d="M 135.871094 93.300781 L 150 114.1875 "/>
<path style="fill:none;stroke-width:1.2;stroke-linecap:butt;stroke-linejoin:miter;stroke:rgb(0%,0%,0%);stroke-opacity:1;stroke-miterlimit:10;" d="M 132.371094 98.710938 L 143.671875 115.425781 "/>
<path style="fill:none;stroke-width:1.2;stroke-linecap:butt;stroke-linejoin:miter;stroke:rgb(0%,0%,0%);stroke-opacity:1;stroke-miterlimit:10;" d="M 150 114.1875 L 138.972656 136.871094 "/>
<path style="fill:none;stroke-width:1.2;stroke-linecap:butt;stroke-linejoin:miter;stroke:rgb(0%,0%,100%);stroke-opacity:1;stroke-miterlimit:10;" d="M 175.15625 112.398438 L 162.578125 113.292969 "/>
<path style="fill:none;stroke-width:1.2;stroke-linecap:butt;stroke-linejoin:miter;stroke:rgb(0%,0%,0%);stroke-opacity:1;stroke-miterlimit:10;" d="M 162.578125 113.292969 L 150 114.1875 "/>
<path style="fill:none;stroke-width:1.2;stroke-linecap:butt;stroke-linejoin:miter;stroke:rgb(0%,0%,0%);stroke-opacity:1;stroke-miterlimit:10;" d="M 138.972656 136.871094 L 126.394531 137.765625 "/>
<path style="fill:none;stroke-width:1.2;stroke-linecap:butt;stroke-linejoin:miter;stroke:rgb(0%,0%,100%);stroke-opacity:1;stroke-miterlimit:10;" d="M 126.394531 137.765625 L 113.816406 138.660156 "/>
<path style="fill:none;stroke-width:1.2;stroke-linecap:butt;stroke-linejoin:miter;stroke:rgb(0%,0%,0%);stroke-opacity:1;stroke-miterlimit:10;" d="M 136.035156 131.128906 L 125.972656 131.847656 "/>
<path style="fill:none;stroke-width:1.2;stroke-linecap:butt;stroke-linejoin:miter;stroke:rgb(0%,0%,100%);stroke-opacity:1;stroke-miterlimit:10;" d="M 125.972656 131.847656 L 115.910156 132.5625 "/>
<path style="fill:none;stroke-width:1.2;stroke-linecap:butt;stroke-linejoin:miter;stroke:rgb(0%,0%,0%);stroke-opacity:1;stroke-miterlimit:10;" d="M 138.972656 136.871094 L 146.035156 147.316406 "/>
<path style="fill:none;stroke-width:1.2;stroke-linecap:butt;stroke-linejoin:miter;stroke:rgb(0%,0%,100%);stroke-opacity:1;stroke-miterlimit:10;" d="M 146.035156 147.316406 L 153.101562 157.761719 "/>
<path style=" stroke:none;fill-rule:nonzero;fill:rgb(100%,100%,100%);fill-opacity:1;" d="M 110.816406 133.160156 L 117.816406 133.160156 L 117.816406 144.160156 L 110.816406 144.160156 Z M 110.816406 133.160156 "/>
<g style="fill:rgb(0%,0%,100%);fill-opacity:1;">
  <use xlink:href="#glyph0-1" x="110.816406" y="141.823242"/>
</g>
<path style="fill:none;stroke-width:1.2;stroke-linecap:butt;stroke-linejoin:miter;stroke:rgb(0%,0%,100%);stroke-opacity:1;stroke-miterlimit:10;" d="M 153.101562 157.761719 L 165.679688 156.863281 "/>
<path style="fill:none;stroke-width:1.2;stroke-linecap:butt;stroke-linejoin:miter;stroke:rgb(0%,0%,0%);stroke-opacity:1;stroke-miterlimit:10;" d="M 165.679688 156.863281 L 178.257812 155.96875 "/>
<path style="fill:none;stroke-width:1.2;stroke-linecap:butt;stroke-linejoin:miter;stroke:rgb(0%,0%,100%);stroke-opacity:1;stroke-miterlimit:10;" d="M 153.101562 157.761719 L 147.585938 169.101562 "/>
<path style="fill:none;stroke-width:1.2;stroke-linecap:butt;stroke-linejoin:miter;stroke:rgb(0%,0%,0%);stroke-opacity:1;stroke-miterlimit:10;" d="M 147.585938 169.101562 L 142.074219 180.441406 "/>
<path style=" stroke:none;fill-rule:nonzero;fill:rgb(100%,100%,100%);fill-opacity:1;" d="M 150.101562 152.261719 L 157.101562 152.261719 L 157.101562 163.261719 L 150.101562 163.261719 Z M 150.101562 152.261719 "/>
<g style="fill:rgb(0%,0%,100%);fill-opacity:1;">
  <use xlink:href="#glyph0-1" x="150.101562" y="160.924805"/>
</g>
<path style="fill:none;stroke-width:1.2;stroke-linecap:butt;stroke-linejoin:miter;stroke:rgb(0%,0%,0%);stroke-opacity:1;stroke-miterlimit:10;" d="M 175.796875 157.632812 L 182.863281 168.078125 "/>
<path style="fill:none;stroke-width:1.2;stroke-linecap:butt;stroke-linejoin:miter;stroke:rgb(100%,0%,0%);stroke-opacity:1;stroke-miterlimit:10;" d="M 182.863281 168.078125 L 189.925781 178.523438 "/>
<path style="fill:none;stroke-width:1.2;stroke-linecap:butt;stroke-linejoin:miter;stroke:rgb(0%,0%,0%);stroke-opacity:1;stroke-miterlimit:10;" d="M 180.714844 154.308594 L 187.777344 164.753906 "/>
<path style="fill:none;stroke-width:1.2;stroke-linecap:butt;stroke-linejoin:miter;stroke:rgb(100%,0%,0%);stroke-opacity:1;stroke-miterlimit:10;" d="M 187.777344 164.753906 L 194.839844 175.199219 "/>
<path style="fill:none;stroke-width:1.2;stroke-linecap:butt;stroke-linejoin:miter;stroke:rgb(0%,0%,0%);stroke-opacity:1;stroke-miterlimit:10;" d="M 178.257812 155.96875 L 189.285156 133.289062 "/>
<path style=" stroke:none;fill-rule:nonzero;fill:rgb(100%,100%,100%);fill-opacity:1;" d="M 188.382812 171.359375 L 196.382812 171.359375 L 196.382812 182.359375 L 188.382812 182.359375 Z M 188.382812 171.359375 "/>
<g style="fill:rgb(100%,0%,0%);fill-opacity:1;">
  <use xlink:href="#glyph0-3" x="188.382812" y="180.022461"/>
</g>
<path style="fill:none;stroke-width:1.2;stroke-linecap:butt;stroke-linejoin:miter;stroke:rgb(0%,0%,0%);stroke-opacity:1;stroke-miterlimit:10;" d="M 189.285156 133.289062 L 182.21875 122.84375 "/>
<path style="fill:none;stroke-width:1.2;stroke-linecap:butt;stroke-linejoin:miter;stroke:rgb(0%,0%,100%);stroke-opacity:1;stroke-miterlimit:10;" d="M 182.21875 122.84375 L 175.15625 112.398438 "/>
<path style="fill:none;stroke-width:1.2;stroke-linecap:butt;stroke-linejoin:miter;stroke:rgb(0%,0%,0%);stroke-opacity:1;stroke-miterlimit:10;" d="M 182.957031 134.523438 L 177.304688 126.167969 "/>
<path style="fill:none;stroke-width:1.2;stroke-linecap:butt;stroke-linejoin:miter;stroke:rgb(0%,0%,100%);stroke-opacity:1;stroke-miterlimit:10;" d="M 177.304688 126.167969 L 171.652344 117.8125 "/>
<path style="fill:none;stroke-width:1.2;stroke-linecap:butt;stroke-linejoin:miter;stroke:rgb(0%,0%,0%);stroke-opacity:1;stroke-miterlimit:10;" d="M 189.285156 133.289062 L 214.4375 131.5 "/>
<path style=" stroke:none;fill-rule:nonzero;fill:rgb(100%,100%,100%);fill-opacity:1;" d="M 172.15625 106.898438 L 179.15625 106.898438 L 179.15625 117.898438 L 172.15625 117.898438 Z M 172.15625 106.898438 "/>
<g style="fill:rgb(0%,0%,100%);fill-opacity:1;">
  <use xlink:href="#glyph0-1" x="172.15625" y="115.561523"/>
</g>
<path style="fill:none;stroke-width:1.2;stroke-linecap:butt;stroke-linejoin:miter;stroke:rgb(0%,0%,0%);stroke-opacity:1;stroke-miterlimit:10;" d="M 214.4375 131.5 L 228.566406 152.390625 "/>
<path style="fill:none;stroke-width:1.2;stroke-linecap:butt;stroke-linejoin:miter;stroke:rgb(0%,0%,0%);stroke-opacity:1;stroke-miterlimit:10;" d="M 220.765625 130.265625 L 232.070312 146.976562 "/>
<path style="fill:none;stroke-width:1.2;stroke-linecap:butt;stroke-linejoin:miter;stroke:rgb(0%,0%,0%);stroke-opacity:1;stroke-miterlimit:10;" d="M 225.464844 108.820312 L 214.4375 131.5 "/>
<path style="fill:none;stroke-width:1.2;stroke-linecap:butt;stroke-linejoin:miter;stroke:rgb(0%,0%,0%);stroke-opacity:1;stroke-miterlimit:10;" d="M 228.566406 152.390625 L 253.722656 150.601562 "/>
<path style="fill:none;stroke-width:1.2;stroke-linecap:butt;stroke-linejoin:miter;stroke:rgb(0%,0%,0%);stroke-opacity:1;stroke-miterlimit:10;" d="M 253.722656 150.601562 L 264.75 127.917969 "/>
<path style="fill:none;stroke-width:1.2;stroke-linecap:butt;stroke-linejoin:miter;stroke:rgb(0%,0%,0%);stroke-opacity:1;stroke-miterlimit:10;" d="M 249.488281 145.738281 L 258.3125 127.59375 "/>
<path style="fill:none;stroke-width:1.2;stroke-linecap:butt;stroke-linejoin:miter;stroke:rgb(0%,0%,0%);stroke-opacity:1;stroke-miterlimit:10;" d="M 264.75 127.917969 L 250.621094 107.027344 "/>
<path style="fill:none;stroke-width:1.2;stroke-linecap:butt;stroke-linejoin:miter;stroke:rgb(0%,0%,0%);stroke-opacity:1;stroke-miterlimit:10;" d="M 250.621094 107.027344 L 225.464844 108.820312 "/>
<path style="fill:none;stroke-width:1.2;stroke-linecap:butt;stroke-linejoin:miter;stroke:rgb(0%,0%,0%);stroke-opacity:1;stroke-miterlimit:10;" d="M 248.527344 113.128906 L 228.402344 114.558594 "/>
<path style="fill:none;stroke-width:1.2;stroke-linecap:butt;stroke-linejoin:miter;stroke:rgb(0%,0%,0%);stroke-opacity:1;stroke-miterlimit:10;" d="M 142.074219 180.441406 L 116.917969 182.230469 "/>
<path style="fill:none;stroke-width:1.2;stroke-linecap:butt;stroke-linejoin:miter;stroke:rgb(0%,0%,0%);stroke-opacity:1;stroke-miterlimit:10;" d="M 116.917969 182.230469 L 111.402344 193.570312 "/>
<path style="fill:none;stroke-width:1.2;stroke-linecap:butt;stroke-linejoin:miter;stroke:rgb(100%,0%,0%);stroke-opacity:1;stroke-miterlimit:10;" d="M 111.402344 193.570312 L 105.890625 204.910156 "/>
<path style="fill:none;stroke-width:1.2;stroke-linecap:butt;stroke-linejoin:miter;stroke:rgb(100%,0%,0%);stroke-opacity:1;stroke-miterlimit:10;" d="M 105.890625 204.910156 L 93.3125 205.804688 "/>
<path style="fill:none;stroke-width:1.2;stroke-linecap:butt;stroke-linejoin:miter;stroke:rgb(0%,0%,0%);stroke-opacity:1;stroke-miterlimit:10;" d="M 93.3125 205.804688 L 80.734375 206.699219 "/>
<path style=" stroke:none;fill-rule:nonzero;fill:rgb(100%,100%,100%);fill-opacity:1;" d="M 101.890625 199.410156 L 109.890625 199.410156 L 109.890625 210.410156 L 101.890625 210.410156 Z M 101.890625 199.410156 "/>
<g style="fill:rgb(100%,0%,0%);fill-opacity:1;">
  <use xlink:href="#glyph0-3" x="101.890625" y="208.073242"/>
</g>
</g>
</svg>

<svg xmlns="http://www.w3.org/2000/svg" xmlns:xlink="http://www.w3.org/1999/xlink" width="300pt" height="300pt" viewBox="0 0 300 300"><defs><symbol overflow="visible"><path d="M.453 1.594v-7.938h4.5v7.938zm.5-.5h3.5v-6.938h-3.5zm0 0"/></symbol><symbol overflow="visible" id="a"><path d="M.89-6.563H2.08l2.906 5.485v-5.484h.86V0H4.656L1.75-5.484V0H.89zm0 0"/></symbol><symbol overflow="visible" id="b"><path d="M.89-6.563h.876v2.688H5v-2.688h.89V0H5v-3.125H1.766V0H.89zm0 0"/></symbol><symbol overflow="visible" id="c"><path d="M3.547-5.953c-.65 0-1.164.242-1.547.72-.375.48-.563 1.13-.563 1.952 0 .835.188 1.49.563 1.967.383.48.898.72 1.547.72.644 0 1.156-.24 1.53-.72.376-.476.564-1.132.564-1.968 0-.822-.187-1.474-.562-1.954-.375-.477-.887-.72-1.53-.72zm0-.734c.914 0 1.648.312 2.203.937.55.617.828 1.438.828 2.47 0 1.042-.277 1.87-.828 2.483-.555.617-1.29.922-2.203.922-.93 0-1.668-.305-2.22-.922C.774-1.41.5-2.237.5-3.28c0-1.033.273-1.853.828-2.47.55-.625 1.29-.938 2.22-.938zm0 0"/></symbol></defs><g><path fill="#fff" d="M0 0h300v300H0z"/><path d="M35.25 100.46l25.156-1.792M60.406 98.668l7.063 10.445" stroke-width="1.2" stroke="#000" stroke-miterlimit="10" fill="none"/><path d="M67.47 109.113l7.065 10.446M74.535 119.56l12.574-.896" stroke-width="1.2" stroke="#00f" stroke-miterlimit="10" fill="none"/><path d="M87.11 118.664l12.578-.894" stroke-width="1.2" stroke="#000" stroke-miterlimit="10" fill="none"/><path d="M67.535 114.06h14v11h-14zm0 0" fill="#fff"/><g fill="#00f"><use xlink:href="#a" x="67.535" y="122.722"/><use xlink:href="#b" x="74.513" y="122.722"/></g><path d="M99.688 117.77l5.515-11.34" stroke-width="1.2" stroke="#000" stroke-miterlimit="10" fill="none"/><path d="M105.203 106.43l5.512-11.34" stroke-width="1.2" stroke="#00f" stroke-miterlimit="10" fill="none"/><path d="M106.13 118.098l4.41-9.075" stroke-width="1.2" stroke="#000" stroke-miterlimit="10" fill="none"/><path d="M110.54 109.023l4.41-9.07M113.816 138.66l-7.062-10.445" stroke-width="1.2" stroke="#00f" stroke-miterlimit="10" fill="none"/><path d="M106.754 128.215l-7.067-10.445" stroke-width="1.2" stroke="#000" stroke-miterlimit="10" fill="none"/><path d="M110.715 95.09l12.578-.895" stroke-width="1.2" stroke="#00f" stroke-miterlimit="10" fill="none"/><path d="M123.293 94.195l12.578-.894" stroke-width="1.2" stroke="#000" stroke-miterlimit="10" fill="none"/><path d="M107.715 89.59h7v11h-7zm0 0" fill="#fff"/><use xlink:href="#a" x="107.715" y="98.253" fill="#00f"/><path d="M135.87 93.3L150 114.19M132.37 98.71l11.302 16.716M150 114.188l-11.027 22.683" stroke-width="1.2" stroke="#000" stroke-miterlimit="10" fill="none"/><path d="M175.156 112.398l-12.578.895" stroke-width="1.2" stroke="#00f" stroke-miterlimit="10" fill="none"/><path d="M162.578 113.293l-12.578.894M138.973 136.87l-12.578.896" stroke-width="1.2" stroke="#000" stroke-miterlimit="10" fill="none"/><path d="M126.395 137.766l-12.58.894" stroke-width="1.2" stroke="#00f" stroke-miterlimit="10" fill="none"/><path d="M136.035 131.13l-10.062.718" stroke-width="1.2" stroke="#000" stroke-miterlimit="10" fill="none"/><path d="M125.973 131.848l-10.063.714" stroke-width="1.2" stroke="#00f" stroke-miterlimit="10" fill="none"/><path d="M138.973 136.87l7.062 10.446" stroke-width="1.2" stroke="#000" stroke-miterlimit="10" fill="none"/><path d="M146.035 147.316l7.067 10.446" stroke-width="1.2" stroke="#00f" stroke-miterlimit="10" fill="none"/><path d="M110.816 133.16h7v11h-7zm0 0" fill="#fff"/><use xlink:href="#a" x="110.816" y="141.823" fill="#00f"/><path d="M153.102 157.762l12.578-.9" stroke-width="1.2" stroke="#00f" stroke-miterlimit="10" fill="none"/><path d="M165.68 156.863l12.578-.894" stroke-width="1.2" stroke="#000" stroke-miterlimit="10" fill="none"/><path d="M153.102 157.762l-5.516 11.34" stroke-width="1.2" stroke="#00f" stroke-miterlimit="10" fill="none"/><path d="M147.586 169.102l-5.512 11.34" stroke-width="1.2" stroke="#000" stroke-miterlimit="10" fill="none"/><path d="M150.102 152.262h7v11h-7zm0 0" fill="#fff"/><use xlink:href="#a" x="150.102" y="160.925" fill="#00f"/><path d="M175.797 157.633l7.066 10.445" stroke-width="1.2" stroke="#000" stroke-miterlimit="10" fill="none"/><path d="M182.863 168.078l7.063 10.445" stroke-width="1.2" stroke="#f00" stroke-miterlimit="10" fill="none"/><path d="M180.715 154.31l7.062 10.444" stroke-width="1.2" stroke="#000" stroke-miterlimit="10" fill="none"/><path d="M187.777 164.754l7.063 10.445" stroke-width="1.2" stroke="#f00" stroke-miterlimit="10" fill="none"/><path d="M178.258 155.97l11.027-22.68" stroke-width="1.2" stroke="#000" stroke-miterlimit="10" fill="none"/><path d="M188.383 171.36h8v11h-8zm0 0" fill="#fff"/><use xlink:href="#c" x="188.383" y="180.022" fill="#f00"/><path d="M189.285 133.29l-7.066-10.446" stroke-width="1.2" stroke="#000" stroke-miterlimit="10" fill="none"/><path d="M182.22 122.844l-7.064-10.446" stroke-width="1.2" stroke="#00f" stroke-miterlimit="10" fill="none"/><path d="M182.957 134.523l-5.652-8.355" stroke-width="1.2" stroke="#000" stroke-miterlimit="10" fill="none"/><path d="M177.305 126.168l-5.653-8.356" stroke-width="1.2" stroke="#00f" stroke-miterlimit="10" fill="none"/><path d="M189.285 133.29l25.153-1.79" stroke-width="1.2" stroke="#000" stroke-miterlimit="10" fill="none"/><path d="M172.156 106.898h7v11h-7zm0 0" fill="#fff"/><use xlink:href="#a" x="172.156" y="115.562" fill="#00f"/><path d="M214.438 131.5l14.128 20.89M220.766 130.266l11.304 16.71M225.465 108.82l-11.028 22.68M228.566 152.39l25.157-1.788M253.723 150.602l11.027-22.684M249.488 145.738l8.825-18.144M264.75 127.918l-14.13-20.89M250.62 107.027l-25.155 1.793M248.527 113.13l-20.125 1.43M142.074 180.44l-25.156 1.79M116.918 182.23l-5.516 11.34" stroke-width="1.2" stroke="#000" stroke-miterlimit="10" fill="none"/><path d="M111.402 193.57l-5.51 11.34M105.89 204.91l-12.578.895" stroke-width="1.2" stroke="#f00" stroke-miterlimit="10" fill="none"/><path d="M93.313 205.805l-12.58.894" stroke-width="1.2" stroke="#000" stroke-miterlimit="10" fill="none"/><path d="M101.89 199.41h8v11h-8zm0 0" fill="#fff"/><use xlink:href="#c" x="101.891" y="208.073" fill="#f00"/></g></svg>
